runpod-worker/color_grading/07_Cinematic LUTs_Flavin.cube
LUT_3D_SIZE 16
0.053530 0.000000 0.000000
0.099117 0.000000 0.000000
0.155636 0.000000 0.000000
0.218248 0.000000 0.000000
0.278802 0.000000 0.000000
0.340051 0.000000 0.000000
0.402917 0.000000 0.000000
0.468191 0.000000 0.000000
0.537341 0.000000 0.000000
0.609455 0.000000 0.000000
0.685491 0.000000 0.000000
0.765605 0.000000 0.000000
0.851893 0.000000 0.000000
0.937669 0.000000 0.000000
0.990005 0.000000 0.000000
1.000038 0.000000 0.000000
0.053530 0.038914 0.000000
0.099117 0.038912 0.000000
0.155636 0.044381 0.000000
0.218248 0.047132 0.000000
0.278802 0.049187 0.000000
0.340051 0.049076 0.000000
0.402917 0.050110 0.000000
0.468191 0.050920 0.000000
0.537341 0.051918 0.000000
0.609455 0.052956 0.000000
0.685491 0.054694 0.000000
0.765605 0.055739 0.000000
0.851893 0.056486 0.000000
0.937669 0.058360 0.000000
0.990005 0.059272 0.000000
1.000038 0.059290 0.000000
0.053530 0.093348 0.000000
0.105471 0.093348 0.000000
0.156632 0.093348 0.000000
0.217606 0.099086 0.000000
0.278802 0.101782 0.000000
0.340051 0.103463 0.000000
0.402917 0.104648 0.000000
0.468191 0.106341 0.000000
0.537341 0.108414 0.000000
0.609455 0.110567 0.000000
0.685491 0.113201 0.000000
0.765605 0.115363 0.000000
0.851893 0.117866 0.000000
0.937669 0.120768 0.000000
0.990005 0.123617 0.000000
1.000038 0.123649 0.000000
0.053530 0.151325 0.000000
0.108340 0.151325 0.000000
0.162657 0.151325 0.000000
0.218463 0.151325 0.000000
0.278802 0.156245 0.000000
0.340051 0.157824 0.000000
0.402917 0.160080 0.000000
0.468191 0.162607 0.000000
0.537341 0.165701 0.000000
0.609455 0.168945 0.000000
0.685491 0.171452 0.000000
0.765605 0.176611 0.000000
0.851893 0.180857 0.000000
0.937669 0.184742 0.000000
0.990005 0.188520 0.000000
1.000038 0.188569 0.000000
0.053530 0.209294 0.000000
0.109742 0.209294 0.000000
0.164647 0.209294 0.000000
0.221865 0.209294 0.000000
0.278802 0.209818 0.000000
0.340051 0.213186 0.000000
0.402917 0.215553 0.000000
0.468191 0.218923 0.000000
0.537341 0.223086 0.000000
0.609455 0.227405 0.000000
0.685491 0.232669 0.000000
0.765605 0.236996 0.000000
0.851893 0.242974 0.000000
0.937669 0.247838 0.000000
0.990005 0.253511 0.000000
1.000038 0.253581 0.000000
0.053530 0.267440 0.000000
0.110610 0.267440 0.000000
0.166655 0.267440 0.000000
0.224741 0.267440 0.000000
0.282781 0.267285 0.000000
0.340051 0.267684 0.000000
0.402917 0.271113 0.000000
0.468191 0.275341 0.000000
0.537341 0.280539 0.000000
0.609455 0.285928 0.000000
0.685491 0.292032 0.000000
0.765605 0.298377 0.000000
0.851893 0.306133 0.000000
0.937669 0.313897 0.000000
0.990005 0.318589 0.000000
1.000038 0.318669 0.000000
0.053530 0.326679 0.000000
0.111355 0.326679 0.000000
0.168654 0.326679 0.000000
0.227485 0.326679 0.000000
0.285809 0.326794 0.000000
0.344060 0.327033 0.000000
0.402917 0.326794 0.000000
0.468191 0.331830 0.000000
0.537341 0.338068 0.000000
0.609455 0.344533 0.000000
0.685491 0.351470 0.000000
0.765605 0.359872 0.000000
0.851893 0.368476 0.000000
0.937669 0.376176 0.000000
0.990005 0.383755 0.000000
1.000038 0.383883 0.000000
0.053530 0.388223 0.000000
0.112221 0.388223 0.000000
0.170660 0.388223 0.000000
0.229355 0.388223 0.000000
0.288861 0.388223 0.000000
0.348065 0.388495 0.000000
0.407967 0.388223 0.000000
0.468191 0.388495 0.000000
0.537341 0.395768 0.000000
0.609455 0.403339 0.000000
0.685491 0.412020 0.000000
0.765605 0.420581 0.000000
0.851893 0.430890 0.000000
0.937669 0.439593 0.000000
0.990005 0.449090 0.000000
1.000038 0.449185 0.000000
0.053530 0.453062 0.000000
0.113278 0.453062 0.000000
0.172649 0.453062 0.000000
0.233396 0.453062 0.000000
0.292263 0.453062 0.000000
0.354253 0.453062 0.000000
0.414371 0.453062 0.000000
0.475381 0.453062 0.000000
0.537341 0.453521 0.000000
0.609455 0.462203 0.000000
0.685491 0.472699 0.000000
0.765605 0.481371 0.000000
0.851893 0.493486 0.000000
0.937669 0.505075 0.000000
0.990005 0.514558 0.000000
1.000038 0.514675 0.000000
0.053530 0.520393 0.000000
0.114381 0.520393 0.000000
0.174656 0.520393 0.000000
0.236510 0.520393 0.000000
0.297868 0.520393 0.000000
0.358957 0.520393 0.000000
0.420997 0.520393 0.000000
0.483091 0.520393 0.000000
0.545624 0.520393 0.000000
0.609455 0.521208 0.000000
0.686817 0.532832 0.000000
0.765605 0.544212 0.000000
0.851893 0.557168 0.000000
0.937669 0.568800 0.000000
0.990005 0.580170 0.000000
1.000038 0.580288 0.000000
0.053530 0.590644 0.000000
0.115536 0.590644 0.000000
0.176662 0.590644 0.000000
0.240672 0.590644 0.000000
0.301884 0.590644 0.000000
0.365232 0.590644 0.000000
0.428019 0.590644 0.000000
0.491372 0.590644 0.000000
0.555064 0.590644 0.000000
0.619162 0.590644 0.000000
0.686202 0.593507 0.000000
0.764293 0.605009 0.000000
0.851893 0.619980 0.000000
0.937669 0.634510 0.000000
0.990005 0.645887 0.000000
1.000038 0.646000 0.000000
0.053530 0.664834 0.000000
0.116838 0.664834 0.000000
0.178661 0.664834 0.000000
0.243977 0.664834 0.000000
0.307750 0.664834 0.000000
0.371417 0.664834 0.000000
0.435878 0.664834 0.000000
0.500513 0.664834 0.000000
0.565571 0.664834 0.000000
0.631061 0.664834 0.000000
0.696746 0.664834 0.000000
0.765201 0.666719 0.000000
0.851893 0.683105 0.000000
0.937669 0.698600 0.000000
0.990005 0.711851 0.000000
1.000038 0.712046 0.000000
0.053530 0.742965 0.000000
0.118263 0.742965 0.000000
0.181669 0.742965 0.000000
0.248406 0.742965 0.000000
0.313297 0.742965 0.000000
0.379441 0.742965 0.000000
0.444468 0.742965 0.000000
0.510562 0.742965 0.000000
0.577097 0.742965 0.000000
0.644033 0.742965 0.000000
0.712171 0.742965 0.000000
0.780161 0.742965 0.000000
0.851893 0.746302 0.000000
0.937669 0.762745 0.000000
0.990005 0.777956 0.000000
1.000038 0.778015 0.000000
0.053530 0.824821 0.000000
0.119727 0.824821 0.000000
0.184652 0.824821 0.000000
0.251867 0.824821 0.000000
0.319102 0.824821 0.000000
0.385684 0.824821 0.000000
0.453259 0.824821 0.000000
0.520869 0.824821 0.000000
0.588895 0.824821 0.000000
0.657321 0.824821 0.000000
0.726041 0.824821 0.000000
0.795492 0.824821 0.000000
0.864917 0.825308 0.000000
0.937669 0.829107 0.000000
0.990005 0.844393 0.000000
1.000038 0.844436 0.000000
0.053530 0.905985 0.000000
0.120950 0.905985 0.000000
0.187662 0.905985 0.000000
0.255095 0.905985 0.000000
0.324501 0.905985 0.000000
0.392368 0.905985 0.000000
0.460655 0.905985 0.000000
0.529476 0.905985 0.000000
0.598714 0.905985 0.000000
0.668471 0.905985 0.000000
0.737885 0.905985 0.000000
0.808646 0.905985 0.000000
0.880973 0.906708 0.000000
0.947079 0.905031 0.000000
0.990005 0.910541 0.000000
1.000038 0.910853 0.000000
0.053530 0.952133 0.000000
0.120991 0.952133 0.000000
0.187662 0.952133 0.000000
0.256137 0.952133 0.000000
0.324673 0.952133 0.000000
0.391544 0.952133 0.000000
0.460811 0.952133 0.000000
0.529733 0.952133 0.000000
0.598965 0.952133 0.000000
0.668698 0.952133 0.000000
0.739174 0.952133 0.000000
0.809853 0.952133 0.000000
0.880487 0.952133 0.000000
0.947079 0.952857 0.000000
0.988294 0.952133 0.000000
1.000038 0.956649 0.000000
0.053530 0.000000 0.008659
0.099117 0.000000 0.008659
0.155636 0.000000 0.010883
0.218248 0.000000 0.012080
0.278802 0.000000 0.012991
0.340051 0.000000 0.012939
0.402917 0.000000 0.013417
0.468191 0.000000 0.013795
0.537341 0.000000 0.014268
0.609455 0.000000 0.014769
0.685491 0.000000 0.015621
0.765605 0.000000 0.016142
0.851893 0.000000 0.016516
0.937669 0.000000 0.017481
0.990005 0.000000 0.017960
1.000038 0.000000 0.017969
0.053530 0.038914 0.008660
0.099117 0.038912 0.008659
0.155636 0.038914 0.008660
0.218248 0.038912 0.008659
0.278802 0.038920 0.008659
0.340051 0.038924 0.008659
0.402917 0.038920 0.008659
0.468191 0.038924 0.008659
0.537341 0.038926 0.008659
0.609455 0.038934 0.008659
0.685491 0.038926 0.008659
0.765605 0.038934 0.008659
0.851893 0.038954 0.008659
0.937669 0.038956 0.008659
0.990005 0.038954 0.008659
1.000038 0.038956 0.008659
0.053530 0.093348 0.011006
0.099121 0.093349 0.008659
0.156632 0.093348 0.008770
0.218251 0.096225 0.008659
0.278802 0.099076 0.008659
0.340051 0.099479 0.008659
0.402917 0.100989 0.008659
0.468191 0.102357 0.008659
0.537341 0.104095 0.008659
0.609455 0.105923 0.008659
0.685491 0.108881 0.008659
0.765605 0.109762 0.008659
0.851893 0.112374 0.008659
0.937669 0.115274 0.008659
0.990005 0.117158 0.008659
1.000038 0.117180 0.008659
0.053530 0.151325 0.012147
0.099124 0.151325 0.008659
0.159640 0.151325 0.008715
0.218253 0.151325 0.008659
0.278802 0.154449 0.008659
0.340051 0.157696 0.008659
0.402917 0.158282 0.008659
0.468191 0.160573 0.008659
0.537341 0.163447 0.008659
0.609455 0.166503 0.008659
0.685491 0.170142 0.008659
0.765605 0.173198 0.008659
0.851893 0.178302 0.008659
0.937669 0.182161 0.008659
0.990005 0.184996 0.008659
1.000038 0.185022 0.008659
0.053530 0.209294 0.012723
0.099127 0.209294 0.008659
0.162657 0.209294 0.008501
0.221268 0.209294 0.008659
0.278802 0.209865 0.008659
0.340051 0.212023 0.008659
0.402917 0.214665 0.008659
0.468191 0.217778 0.008659
0.537341 0.221731 0.008659
0.609455 0.225894 0.008659
0.685491 0.231325 0.008659
0.765605 0.234517 0.008659
0.851893 0.241666 0.008659
0.937669 0.247445 0.008659
0.990005 0.251245 0.008659
1.000038 0.251278 0.008659
0.053530 0.267440 0.013087
0.099131 0.267440 0.008659
0.163651 0.267440 0.008805
0.223260 0.267440 0.008659
0.281803 0.268828 0.008659
0.340051 0.267031 0.008659
0.402917 0.270750 0.008659
0.468191 0.274694 0.008659
0.537341 0.279701 0.008659
0.609455 0.284976 0.008659
0.685491 0.291197 0.008659
0.765605 0.297434 0.008659
0.851893 0.303552 0.008659
0.937669 0.312254 0.008659
0.990005 0.316975 0.008659
1.000038 0.317039 0.008659
0.053530 0.326679 0.013407
0.099131 0.326679 0.008659
0.164647 0.326679 0.008717
0.225258 0.326679 0.008659
0.284795 0.326793 0.008659
0.343075 0.326783 0.008659
0.402917 0.326793 0.008659
0.468191 0.331560 0.008659
0.537341 0.337631 0.008659
0.609455 0.343983 0.008659
0.685491 0.352007 0.008659
0.765605 0.358329 0.008659
0.851893 0.367290 0.008659
0.937669 0.375931 0.008659
0.990005 0.382580 0.008659
1.000038 0.382710 0.008659
0.053530 0.388223 0.013780
0.099137 0.388223 0.008659
0.165644 0.388223 0.008668
0.227274 0.388223 0.008659
0.288582 0.388223 0.008659
0.347078 0.388491 0.008659
0.407716 0.388223 0.008659
0.468191 0.388491 0.008659
0.537341 0.395551 0.008659
0.609455 0.402942 0.008659
0.685491 0.411840 0.008659
0.765605 0.420214 0.008659
0.851893 0.429031 0.008659
0.937669 0.439592 0.008659
0.990005 0.448184 0.008659
1.000038 0.448226 0.008659
0.053530 0.453062 0.014239
0.099143 0.453062 0.008659
0.167648 0.453062 0.008686
0.230287 0.453062 0.008659
0.292738 0.453062 0.008659
0.352046 0.453062 0.008659
0.413878 0.453062 0.008659
0.475194 0.453062 0.008659
0.537341 0.453518 0.008659
0.609455 0.462027 0.008659
0.685491 0.471743 0.008659
0.765605 0.481202 0.008659
0.851893 0.493750 0.008659
0.937669 0.504375 0.008659
0.990005 0.513852 0.008659
1.000038 0.513958 0.008659
0.053530 0.520393 0.014726
0.099152 0.520394 0.008659
0.169647 0.520393 0.008719
0.233293 0.520394 0.008659
0.296219 0.520394 0.008659
0.358637 0.520394 0.008659
0.420362 0.520394 0.008659
0.482746 0.520394 0.008659
0.545485 0.520394 0.008659
0.609455 0.521240 0.008659
0.686617 0.532832 0.008659
0.765605 0.543250 0.008659
0.851893 0.555717 0.008659
0.937669 0.569180 0.008659
0.990005 0.579657 0.008659
1.000038 0.579722 0.008659
0.053530 0.590644 0.015249
0.099148 0.590644 0.008659
0.171653 0.590644 0.008775
0.237291 0.590644 0.008659
0.300100 0.590644 0.008659
0.363688 0.590644 0.008659
0.427227 0.590644 0.008659
0.490831 0.590644 0.008659
0.554746 0.590644 0.008659
0.619015 0.590644 0.008659
0.686905 0.594485 0.008659
0.765178 0.605009 0.008659
0.851893 0.619630 0.008659
0.937669 0.633189 0.008659
0.990005 0.645510 0.008659
1.000038 0.645602 0.008659
0.053530 0.664834 0.015844
0.099160 0.664834 0.008659
0.173659 0.664834 0.008528
0.241306 0.664834 0.008659
0.304871 0.664834 0.008659
0.370791 0.664834 0.008659
0.434984 0.664834 0.008659
0.499907 0.664834 0.008659
0.565155 0.664834 0.008659
0.630790 0.664834 0.008659
0.696242 0.664834 0.008659
0.764904 0.666719 0.008659
0.851893 0.682750 0.008659
0.937669 0.698282 0.008659
0.990005 0.711563 0.008659
1.000038 0.711730 0.008659
0.053530 0.742965 0.016509
0.099157 0.742965 0.008659
0.175659 0.742965 0.008676
0.245312 0.742965 0.008659
0.311358 0.742965 0.008659
0.377718 0.742965 0.008659
0.443494 0.742965 0.008659
0.509858 0.742965 0.008659
0.576555 0.742965 0.008659
0.643684 0.742965 0.008659
0.710693 0.742965 0.008659
0.778771 0.742965 0.008659
0.851893 0.746187 0.008659
0.937669 0.763511 0.008659
0.990005 0.777809 0.008659
1.000038 0.777881 0.008659
0.053530 0.824821 0.017199
0.099171 0.824821 0.008659
0.178661 0.824821 0.008834
0.248325 0.824821 0.008659
0.317013 0.824821 0.008659
0.383880 0.824821 0.008659
0.452161 0.824821 0.008659
0.520030 0.824821 0.008659
0.588219 0.824821 0.008659
0.656826 0.824821 0.008659
0.725338 0.824821 0.008659
0.796006 0.824821 0.008659
0.864917 0.825153 0.008659
0.937669 0.828891 0.008659
0.990005 0.844301 0.008659
1.000038 0.844243 0.008659
0.053530 0.905985 0.017792
0.099181 0.905985 0.008659
0.180661 0.905985 0.008561
0.252338 0.905985 0.008659
0.322297 0.905985 0.008659
0.390396 0.905985 0.008659
0.459460 0.905985 0.008659
0.528557 0.905985 0.008659
0.598066 0.905985 0.008659
0.667961 0.905985 0.008659
0.739230 0.905985 0.008659
0.808085 0.905985 0.008659
0.880973 0.906695 0.008659
0.946314 0.905105 0.008659
0.990005 0.910528 0.008659
1.000038 0.910837 0.008659
0.053530 0.952133 0.017815
0.099175 0.952133 0.008659
0.180661 0.952133 0.008577
0.252343 0.952133 0.008659
0.321471 0.952133 0.008659
0.390591 0.952133 0.008659
0.459606 0.952133 0.008659
0.528758 0.952133 0.008659
0.598264 0.952133 0.008659
0.668124 0.952133 0.008659
0.737482 0.952133 0.008659
0.810244 0.952133 0.008659
0.879463 0.952133 0.008659
0.947079 0.952844 0.008659
0.988295 0.952133 0.008659
1.000038 0.956636 0.008659
0.053530 0.000000 0.039211
0.105470 0.000000 0.039211
0.156632 0.000000 0.038509
0.217602 0.000000 0.042785
0.278802 0.000000 0.045478
0.340051 0.000000 0.046796
0.402917 0.000000 0.047757
0.468191 0.000000 0.049104
0.537341 0.000000 0.050787
0.609455 0.000000 0.052570
0.685491 0.000000 0.054804
0.765605 0.000000 0.056648
0.851893 0.000000 0.058757
0.937669 0.000000 0.061364
0.990005 0.000000 0.063920
1.000038 0.000000 0.063975
0.053530 0.044693 0.039211
0.099120 0.038914 0.039211
0.156632 0.039226 0.038509
0.218251 0.038914 0.040622
0.278802 0.038914 0.043420
0.340051 0.038914 0.043728
0.402917 0.038914 0.044898
0.468191 0.038914 0.045963
0.537341 0.038914 0.047330
0.609455 0.038914 0.048786
0.685491 0.038914 0.050431
0.765605 0.038914 0.051143
0.851893 0.038914 0.054051
0.937669 0.038914 0.056544
0.990005 0.038914 0.058183
1.000038 0.038914 0.058214
0.053530 0.093348 0.039210
0.099117 0.093349 0.039210
0.155636 0.092395 0.038512
0.218248 0.093349 0.039210
0.278802 0.093415 0.039211
0.340051 0.093433 0.039211
0.402917 0.093415 0.039211
0.468191 0.093433 0.039211
0.537341 0.093463 0.039211
0.609455 0.093506 0.039211
0.685491 0.093463 0.039211
0.765605 0.094457 0.039211
0.851893 0.093743 0.039211
0.937669 0.093748 0.039211
0.990004 0.093743 0.039211
1.000038 0.093748 0.039211
0.053530 0.151325 0.043251
0.099117 0.151325 0.041747
0.155636 0.151325 0.038953
0.218248 0.151325 0.039604
0.278802 0.153814 0.039211
0.340051 0.153406 0.039211
0.402917 0.154769 0.039211
0.468191 0.156267 0.039211
0.537341 0.158240 0.039211
0.609455 0.160332 0.039211
0.685491 0.163018 0.039211
0.765605 0.165110 0.039211
0.851893 0.167905 0.039211
0.937669 0.171742 0.039211
0.990004 0.173659 0.039211
1.000038 0.173676 0.039211
0.053530 0.209294 0.045301
0.099117 0.209294 0.043116
0.155636 0.209294 0.038790
0.220261 0.209294 0.039522
0.278802 0.209046 0.039211
0.340051 0.211568 0.039211
0.402917 0.212890 0.039211
0.468191 0.215392 0.039211
0.537341 0.218662 0.039211
0.609455 0.222202 0.039211
0.685491 0.226332 0.039211
0.765605 0.229848 0.039211
0.851893 0.234514 0.039211
0.937669 0.240282 0.039211
0.990004 0.244093 0.039211
1.000038 0.244117 0.039211
0.053530 0.267440 0.046592
0.099117 0.267440 0.044022
0.155636 0.267440 0.038588
0.220261 0.267440 0.039685
0.280793 0.267151 0.039211
0.340051 0.267666 0.039211
0.402917 0.270019 0.039211
0.468191 0.273401 0.039211
0.537341 0.277872 0.039211
0.609455 0.282604 0.039211
0.685491 0.288433 0.039211
0.765605 0.293125 0.039211
0.851893 0.299576 0.039211
0.937669 0.305324 0.039211
0.990004 0.312010 0.039211
1.000038 0.312014 0.039211
0.053530 0.326679 0.047720
0.099117 0.326679 0.044872
0.155636 0.326679 0.038919
0.221259 0.326679 0.039793
0.282781 0.326787 0.039211
0.343075 0.326193 0.039211
0.402917 0.326787 0.039211
0.468191 0.330988 0.039211
0.537341 0.336538 0.039211
0.609455 0.342429 0.039211
0.685491 0.349013 0.039211
0.765605 0.356807 0.039211
0.851893 0.364582 0.039211
0.937669 0.372255 0.039211
0.990004 0.378988 0.039211
1.000038 0.378971 0.039211
0.053530 0.388223 0.049049
0.099117 0.388223 0.045907
0.155636 0.388223 0.038724
0.223247 0.388223 0.039356
0.284000 0.388222 0.039211
0.346053 0.388468 0.039211
0.407131 0.388222 0.039211
0.468191 0.388468 0.039211
0.537341 0.395094 0.039211
0.609455 0.402060 0.039211
0.685491 0.410409 0.039211
0.765605 0.418303 0.039211
0.851893 0.428208 0.039211
0.937669 0.436838 0.039211
0.990004 0.445433 0.039211
1.000038 0.445441 0.039211
0.053530 0.453062 0.050689
0.099117 0.453062 0.047245
0.155636 0.453062 0.038793
0.225261 0.453062 0.039186
0.288704 0.453062 0.039211
0.350583 0.453062 0.039211
0.412813 0.453062 0.039211
0.474709 0.453062 0.039211
0.537341 0.453519 0.039211
0.609455 0.461602 0.039211
0.685491 0.470743 0.039211
0.765605 0.479832 0.039211
0.851893 0.491636 0.039211
0.937669 0.503158 0.039211
0.990004 0.511741 0.039211
1.000038 0.511764 0.039211
0.053530 0.520393 0.052413
0.099117 0.520394 0.048660
0.155636 0.520393 0.038908
0.227251 0.520394 0.039778
0.292600 0.520393 0.039211
0.356681 0.520393 0.039211
0.418728 0.520393 0.039211
0.481827 0.520393 0.039211
0.545043 0.520393 0.039211
0.609455 0.521209 0.039211
0.687218 0.531885 0.039211
0.765605 0.542288 0.039211
0.851893 0.556058 0.039211
0.937669 0.568508 0.039211
0.990004 0.578078 0.039211
1.000038 0.578078 0.039211
0.053530 0.590644 0.054280
0.099117 0.590644 0.050182
0.156632 0.590644 0.038431
0.229248 0.590644 0.039749
0.296118 0.590644 0.039211
0.360348 0.590644 0.039211
0.425287 0.590644 0.039211
0.489495 0.590644 0.039211
0.553961 0.590644 0.039211
0.618685 0.590644 0.039211
0.686138 0.592563 0.039211
0.766818 0.605996 0.039211
0.851893 0.619460 0.039211
0.937669 0.632867 0.039211
0.990004 0.644349 0.039211
1.000038 0.644350 0.039211
0.053530 0.664834 0.056408
0.099117 0.664834 0.051935
0.155636 0.664834 0.038844
0.232269 0.664834 0.039196
0.300428 0.664834 0.039211
0.366107 0.664834 0.039211
0.432542 0.664834 0.039211
0.498236 0.664834 0.039211
0.563999 0.664834 0.039211
0.630122 0.664834 0.039211
0.696164 0.664834 0.039211
0.767246 0.667713 0.039211
0.851893 0.682128 0.039211
0.937669 0.697494 0.039211
0.990004 0.710935 0.039211
1.000038 0.710881 0.039211
0.053530 0.742965 0.058768
0.099117 0.742965 0.053904
0.155636 0.742965 0.038718
0.235264 0.742965 0.039502
0.304423 0.742965 0.039211
0.374642 0.742965 0.039211
0.440600 0.742965 0.039211
0.507765 0.742965 0.039211
0.575094 0.742965 0.039211
0.642678 0.742965 0.039211
0.711229 0.742965 0.039211
0.778785 0.742965 0.039211
0.851893 0.747690 0.039211
0.937669 0.763798 0.039211
0.990004 0.777353 0.039211
1.000038 0.777239 0.039211
0.053530 0.824821 0.061237
0.099117 0.824821 0.055945
0.155636 0.824821 0.038648
0.238273 0.824821 0.039150
0.310655 0.824821 0.039211
0.379424 0.824821 0.039211
0.448810 0.824821 0.039211
0.517564 0.824821 0.039211
0.586480 0.824821 0.039211
0.655620 0.824821 0.039211
0.724645 0.824821 0.039211
0.794773 0.824821 0.039211
0.864917 0.824876 0.039211
0.937669 0.828631 0.039211
0.990004 0.844029 0.039211
1.000038 0.843961 0.039211
0.053530 0.905985 0.063336
0.099117 0.905985 0.057689
0.156632 0.905985 0.038939
0.241275 0.905985 0.039217
0.314626 0.905984 0.039211
0.386668 0.905984 0.039211
0.455788 0.905984 0.039211
0.525804 0.905984 0.039211
0.595939 0.905984 0.039211
0.666340 0.905984 0.039211
0.737096 0.905984 0.039211
0.807489 0.905984 0.039211
0.879935 0.906713 0.039211
0.946314 0.905846 0.039211
0.990004 0.910546 0.039211
1.000038 0.910673 0.039211
0.053530 0.952133 0.063426
0.099117 0.952133 0.057757
0.156632 0.952133 0.039014
0.240272 0.952133 0.039277
0.314666 0.952133 0.039211
0.385800 0.952133 0.039211
0.455836 0.952133 0.039211
0.525957 0.952133 0.039211
0.596061 0.952133 0.039211
0.666460 0.952133 0.039211
0.738183 0.952133 0.039211
0.808623 0.952133 0.039211
0.879348 0.952133 0.039211
0.946314 0.952759 0.039211
0.988350 0.952133 0.039211
1.000038 0.956568 0.039211
0.053530 0.000000 0.090184
0.108320 0.000000 0.090184
0.162657 0.000000 0.090184
0.217438 0.000000 0.090184
0.278802 0.000000 0.095347
0.340051 0.000000 0.097032
0.402917 0.000000 0.099609
0.468191 0.000000 0.102411
0.537341 0.000000 0.105893
0.609455 0.000000 0.109518
0.685491 0.000000 0.113528
0.765605 0.000000 0.118250
0.851893 0.000000 0.122793
0.937669 0.000000 0.128367
0.990005 0.000000 0.131524
1.000038 0.000000 0.131641
0.053530 0.047298 0.090184
0.099120 0.038914 0.090184
0.159640 0.039081 0.090184
0.218251 0.038914 0.090184
0.278802 0.038914 0.093426
0.340051 0.038914 0.095907
0.402917 0.038914 0.097648
0.468191 0.038914 0.100181
0.537341 0.038914 0.103380
0.609455 0.038914 0.106788
0.685491 0.038914 0.111018
0.765605 0.038914 0.115509
0.851893 0.038914 0.119932
0.937669 0.038914 0.124387
0.990005 0.038914 0.127564
1.000038 0.038914 0.127661
0.053530 0.098808 0.090184
0.099117 0.096799 0.090184
0.155636 0.092117 0.090184
0.218248 0.093926 0.090184
0.278802 0.093348 0.091733
0.340051 0.093348 0.092226
0.402917 0.093348 0.093807
0.468191 0.093348 0.095367
0.537341 0.093348 0.097471
0.609455 0.093348 0.099733
0.685491 0.093348 0.102852
0.765605 0.093348 0.104075
0.851893 0.093348 0.107784
0.937669 0.093348 0.112162
0.990004 0.093348 0.114330
1.000038 0.093348 0.114344
0.053530 0.151325 0.090223
0.099117 0.151325 0.090219
0.155636 0.151325 0.090223
0.218248 0.151325 0.089187
0.278802 0.151492 0.090184
0.340051 0.151572 0.090184
0.402917 0.151492 0.090184
0.468191 0.151572 0.090184
0.537341 0.151681 0.090184
0.609455 0.151804 0.090184
0.685491 0.151681 0.090184
0.765605 0.152756 0.090184
0.851893 0.152596 0.090184
0.937669 0.152692 0.090184
0.990005 0.152596 0.090184
1.000038 0.152692 0.090184
0.053530 0.209294 0.094470
0.099117 0.209294 0.093419
0.155636 0.209294 0.091349
0.218248 0.209294 0.090304
0.278802 0.209326 0.090184
0.340051 0.208994 0.090184
0.402917 0.211250 0.090184
0.468191 0.212833 0.090184
0.537341 0.214959 0.090184
0.609455 0.217220 0.090184
0.685491 0.219758 0.090184
0.765605 0.222976 0.090184
0.851893 0.226023 0.090184
0.937669 0.228930 0.090184
0.990005 0.231795 0.090184
1.000038 0.231804 0.090184
0.053530 0.267440 0.097146
0.099117 0.267440 0.095573
0.155636 0.267440 0.092937
0.218248 0.267440 0.089344
0.279786 0.267435 0.090184
0.340051 0.267222 0.090184
0.402917 0.269343 0.090184
0.468191 0.272020 0.090184
0.537341 0.275621 0.090184
0.609455 0.279420 0.090184
0.685491 0.284248 0.090184
0.765605 0.288045 0.090184
0.851893 0.294111 0.090184
0.937669 0.298846 0.090184
0.990005 0.303672 0.090184
1.000038 0.303644 0.090184
0.053530 0.326679 0.099522
0.099117 0.326679 0.097571
0.155636 0.326679 0.094215
0.218248 0.326679 0.090254
0.280793 0.326785 0.090184
0.342060 0.325630 0.090184
0.402917 0.326785 0.090184
0.468191 0.330408 0.090184
0.537341 0.335286 0.090184
0.609455 0.340443 0.090184
0.685491 0.345830 0.090184
0.765605 0.352887 0.090184
0.851893 0.359475 0.090184
0.937669 0.367131 0.090184
0.990005 0.372941 0.090184
1.000038 0.372909 0.090184
0.053530 0.388223 0.102301
0.099117 0.388223 0.100070
0.155636 0.388223 0.095863
0.218248 0.388223 0.090581
0.283391 0.388223 0.090184
0.344060 0.388417 0.090184
0.406531 0.388223 0.090184
0.468191 0.388417 0.090184
