runpod-worker/color_grading/07_Cinematic LUTs_Flavin.cube
LUT_3D_SIZE 6
0.053530 0.000000 0.000000
0.218248 0.000000 0.000000
0.402917 0.000000 0.000000
0.609455 0.000000 0.000000
0.851893 0.000000 0.000000
1.000038 0.000000 0.000000
0.053530 0.151325 0.000000
0.218463 0.151325 0.000000
0.402917 0.160080 0.000000
0.609455 0.168945 0.000000
0.851893 0.180857 0.000000
1.000038 0.188569 0.000000
0.053530 0.326679 0.000000
0.227485 0.326679 0.000000
0.402917 0.326794 0.000000
0.609455 0.344533 0.000000
0.851893 0.368476 0.000000
1.000038 0.383883 0.000000
0.053530 0.520393 0.000000
0.236510 0.520393 0.000000
0.420997 0.520393 0.000000
0.609455 0.521208 0.000000
0.851893 0.557168 0.000000
1.000038 0.580288 0.000000
0.053530 0.742965 0.000000
0.248406 0.742965 0.000000
0.444468 0.742965 0.000000
0.644033 0.742965 0.000000
0.851893 0.746302 0.000000
1.000038 0.778015 0.000000
0.053530 0.952133 0.000000
0.256137 0.952133 0.000000
0.460811 0.952133 0.000000
0.668698 0.952133 0.000000
0.880487 0.952133 0.000000
1.000038 0.956649 0.000000
0.053530 0.000000 0.090184
0.217438 0.000000 0.090184
0.402917 0.000000 0.099609
0.609455 0.000000 0.109518
0.851893 0.000000 0.122793
1.000038 0.000000 0.131641
0.053530 0.151325 0.090223
0.218248 0.151325 0.089187
0.402917 0.151492 0.090184
0.609455 0.151804 0.090184
0.851893 0.152596 0.090184
1.000038 0.152692 0.090184
0.053530 0.326679 0.099522
0.218248 0.326679 0.090254
0.402917 0.326785 0.090184
0.609455 0.340443 0.090184
0.851893 0.359475 0.090184
1.000038 0.372909 0.090184
0.053530 0.520393 0.109209
0.218248 0.520394 0.090508
0.416782 0.520394 0.090184
0.609455 0.521142 0.090184
0.851893 0.553521 0.090184
1.000038 0.575391 0.090184
0.053530 0.742965 0.121794
0.219256 0.742965 0.089331
0.436130 0.742965 0.090184
0.641258 0.742965 0.090184
0.851893 0.746687 0.090184
1.000038 0.776093 0.090184
0.053530 0.952133 0.130622
0.219256 0.952133 0.091013
0.449736 0.952133 0.090184
0.663880 0.952133 0.090184
0.878144 0.952133 0.090184
1.000038 0.956463 0.090184
0.053530 0.000000 0.272218
0.226266 0.000000 0.272218
0.402917 0.000000 0.273729
0.609455 0.000000 0.292959
0.851893 0.000000 0.318259
1.000038 0.000000 0.336130
0.053530 0.159370 0.272218
0.218248 0.151870 0.272218
0.402917 0.151325 0.273415
0.609455 0.151325 0.287776
0.851893 0.151325 0.308913
1.000038 0.151325 0.322205
0.053530 0.326679 0.273611
0.218248 0.326679 0.273595
0.402917 0.326697 0.272218
0.609455 0.328717 0.272218
0.851893 0.332025 0.272218
1.000038 0.334492 0.272218
0.053530 0.520393 0.292386
0.218248 0.520394 0.286269
0.405119 0.520394 0.272218
0.609455 0.520947 0.272218
0.851893 0.544637 0.272218
1.000038 0.559535 0.272218
0.053530 0.742965 0.316787
0.218248 0.742965 0.307019
0.408486 0.742965 0.272218
0.632362 0.742965 0.272218
0.851893 0.746242 0.272218
1.000038 0.770186 0.272218
0.053530 0.952133 0.334195
0.218248 0.952133 0.320915
0.411485 0.952133 0.272218
0.648587 0.952133 0.272218
0.873724 0.952133 0.272218
1.000038 0.955913 0.272218
0.053530 0.000000 0.442866
0.233464 0.000000 0.442866
0.414729 0.000000 0.442866
0.609455 0.000000 0.452870
0.851893 0.000000 0.489928
1.000038 0.000000 0.515219
0.053530 0.165670 0.442866
0.218248 0.151905 0.442866
0.411565 0.151325 0.442866
0.609455 0.151325 0.451949
0.851893 0.151325 0.485413
1.000038 0.151325 0.508126
0.053530 0.338056 0.442866
0.218248 0.334611 0.442866
0.403022 0.326679 0.442866
0.609455 0.326679 0.447921
0.851893 0.326679 0.467277
1.000038 0.326679 0.478760
0.053530 0.520393 0.452010
0.218248 0.520394 0.451952
0.402917 0.520394 0.447426
0.609455 0.520583 0.442866
0.851893 0.529096 0.442866
1.000038 0.536195 0.442866
0.053530 0.742965 0.486867
0.218248 0.742965 0.483221
0.402917 0.742965 0.464972
0.618397 0.742965 0.442866
0.851893 0.745908 0.442866
1.000038 0.761585 0.442866
0.053530 0.952133 0.512463
0.218248 0.952133 0.506399
0.402917 0.952133 0.476916
0.626345 0.952133 0.442866
0.866030 0.952133 0.442866
1.000038 0.955057 0.442866
0.053530 0.000000 0.586505
0.239447 0.000000 0.586505
0.426630 0.000000 0.586505
0.617062 0.000000 0.586505
0.851893 0.000000 0.621734
1.000038 0.000000 0.655391
0.053530 0.171363 0.586505
0.218248 0.150498 0.586505
0.421080 0.151325 0.586505
0.615984 0.151325 0.586505
0.851893 0.151325 0.619046
1.000038 0.151325 0.651100
0.053530 0.349381 0.586505
0.218248 0.343830 0.586505
0.403177 0.326679 0.586505
0.613745 0.326679 0.586505
0.851893 0.326679 0.611481
1.000038 0.326679 0.633036
0.053530 0.528486 0.586505
0.218248 0.528225 0.586505
0.402917 0.524880 0.586505
0.609668 0.520394 0.586505
0.851893 0.520394 0.594138
1.000038 0.520394 0.597204
0.053530 0.742965 0.618671
0.218248 0.742965 0.617509
0.402917 0.742965 0.608890
0.609455 0.742965 0.592638
0.851893 0.744087 0.586505
1.000038 0.757030 0.586505
0.053530 0.952133 0.651943
0.218248 0.952133 0.648346
0.402917 0.952133 0.630390
0.609455 0.952133 0.595416
0.863770 0.952133 0.586505
1.000038 0.954186 0.586505
0.053530 0.000000 0.696793
0.242479 0.000000 0.696793
0.432794 0.000000 0.696793
0.626320 0.000000 0.696793
0.838295 0.000000 0.711669
1.000038 0.000000 0.758613
0.053530 0.174302 0.696793
0.218248 0.151352 0.696794
0.425952 0.151325 0.696793
0.624215 0.151325 0.696793
0.837353 0.151325 0.711745
1.000038 0.151325 0.756006
0.053530 0.355257 0.696793
0.218248 0.347688 0.696794
0.403320 0.326679 0.696793
0.618881 0.326679 0.696793
0.839906 0.326679 0.708531
1.000038 0.326679 0.743862
0.053530 0.537366 0.696793
0.218248 0.536004 0.696794
0.402917 0.529661 0.696793
0.610013 0.520394 0.696793
0.840977 0.520394 0.702140
1.000038 0.520394 0.720135
0.053530 0.731316 0.708220
0.218248 0.731020 0.708077
0.402917 0.732486 0.705693
0.609455 0.735654 0.701442
0.850483 0.743417 0.696793
1.000038 0.748255 0.696793
0.053530 0.952133 0.754789
0.218248 0.952133 0.752465
0.402917 0.952133 0.740888
0.609455 0.952133 0.718028
0.856632 0.952133 0.696793
1.000038 0.953515 0.696793
