backend/color_grading/05_Film LUTs_Foliage.cube
LUT_3D_SIZE 16
0.052547 0.057230 0.057230
0.064075 0.057230 0.057230
0.105113 0.057230 0.057230
0.162817 0.057230 0.057230
0.228330 0.057230 0.057230
0.300177 0.057230 0.057230
0.375119 0.057230 0.057230
0.454031 0.057230 0.057230
0.534985 0.057230 0.057230
0.615859 0.057230 0.057230
0.697434 0.057230 0.057230
0.773780 0.057230 0.057230
0.849255 0.057230 0.057230
0.922109 0.057230 0.057230
0.981855 0.057230 0.057230
1.047134 0.057230 0.057230
0.052547 0.069778 0.057230
0.064075 0.069778 0.057230
0.105113 0.070662 0.057230
0.162817 0.071553 0.057230
0.228330 0.071574 0.057230
0.300177 0.073009 0.057230
0.375119 0.073367 0.057230
0.454031 0.073912 0.057230
0.534985 0.074324 0.057230
0.615859 0.074533 0.057230
0.697434 0.074324 0.057230
0.773780 0.074533 0.057230
0.849255 0.074096 0.057230
0.922109 0.073905 0.057230
0.981855 0.073191 0.057230
1.047134 0.073010 0.057230
0.052547 0.113424 0.057230
0.064775 0.113424 0.057230
0.105113 0.113424 0.057230
0.162614 0.116315 0.057230
0.228330 0.119242 0.057230
0.300177 0.121026 0.057230
0.375119 0.123087 0.057230
0.454031 0.124887 0.057230
0.534985 0.126238 0.057230
0.615859 0.126941 0.057230
0.697434 0.127196 0.057230
0.773780 0.126941 0.057230
0.849255 0.126382 0.057230
0.922109 0.124799 0.057230
0.981855 0.122523 0.057230
1.047134 0.121903 0.057230
0.052547 0.174896 0.057230
0.065550 0.174896 0.057230
0.107997 0.174896 0.057230
0.162515 0.174896 0.057230
0.228330 0.179476 0.057230
0.300177 0.183501 0.057230
0.375119 0.186312 0.057230
0.454031 0.189375 0.057230
0.534985 0.191650 0.057230
0.615859 0.192778 0.057230
0.697434 0.193593 0.057230
0.773780 0.191814 0.057230
0.849255 0.191262 0.057230
0.922109 0.189194 0.057230
0.981855 0.185414 0.057230
1.047134 0.184321 0.057230
0.052547 0.244490 0.057230
0.066235 0.244490 0.057230
0.110875 0.244490 0.057230
0.167169 0.244490 0.057230
0.228330 0.244477 0.057230
0.300177 0.249725 0.057230
0.375119 0.254341 0.057230
0.454031 0.258610 0.057230
0.534985 0.261767 0.057230
0.615859 0.263331 0.057230
0.697434 0.263742 0.057230
0.773780 0.263331 0.057230
0.849255 0.260937 0.057230
0.922109 0.258460 0.057230
0.981855 0.253041 0.057230
1.047134 0.251561 0.057230
0.052547 0.318633 0.057230
0.066841 0.318633 0.057230
0.111834 0.318633 0.057230
0.170760 0.318633 0.057230
0.234240 0.318670 0.057230
0.300177 0.319074 0.057230
0.375119 0.324637 0.057230
0.454031 0.330032 0.057230
0.534985 0.334072 0.057230
0.615859 0.336097 0.057230
0.697434 0.337059 0.057230
0.773780 0.335091 0.057230
0.849255 0.333864 0.057230
0.922109 0.329960 0.057230
0.981855 0.322895 0.057230
1.047134 0.321010 0.057230
0.052547 0.396117 0.057230
0.067376 0.396117 0.057230
0.113762 0.396117 0.057230
0.173313 0.396117 0.057230
0.238165 0.396117 0.057230
0.306114 0.396752 0.057230
0.375119 0.396117 0.057230
0.454031 0.402748 0.057230
0.534985 0.407679 0.057230
0.615859 0.410108 0.057230
0.697434 0.411675 0.057230
0.773780 0.409118 0.057230
0.849255 0.406096 0.057230
0.922109 0.402748 0.057230
0.981855 0.394084 0.057230
1.047134 0.391747 0.057230
0.052547 0.476294 0.057230
0.067881 0.476294 0.057230
0.115689 0.476294 0.057230
0.176800 0.476294 0.057230
0.243539 0.476294 0.057230
0.311094 0.476294 0.057230
0.381571 0.476294 0.057230
0.454031 0.476294 0.057230
0.534985 0.482104 0.057230
0.615859 0.484971 0.057230
0.697434 0.486144 0.057230
0.773780 0.483952 0.057230
0.849255 0.481226 0.057230
0.922109 0.475430 0.057230
0.981855 0.466114 0.057230
1.047134 0.463365 0.057230
0.052547 0.557168 0.057230
0.068259 0.557168 0.057230
0.116647 0.557168 0.057230
0.177211 0.557168 0.057230
0.246309 0.557168 0.057230
0.315773 0.557168 0.057230
0.386401 0.557168 0.057230
0.459767 0.557168 0.057230
0.534985 0.557168 0.057230
0.615859 0.560475 0.057230
0.697434 0.561210 0.057230
0.773780 0.559470 0.057230
0.849255 0.555957 0.057230
0.922109 0.549747 0.057230
0.981855 0.538794 0.057230
1.047134 0.535562 0.057230
0.052547 0.636490 0.057230
0.068456 0.636490 0.057230
0.117609 0.636490 0.057230
0.180373 0.636490 0.057230
0.245723 0.636490 0.057230
0.317613 0.636490 0.057230
0.388787 0.636490 0.057230
0.462656 0.636490 0.057230
0.538319 0.636490 0.057230
0.615859 0.636490 0.057230
0.697727 0.637472 0.057230
0.773780 0.634440 0.057230
0.849255 0.630225 0.057230
0.922109 0.623538 0.057230
0.981855 0.611906 0.057230
1.047134 0.608295 0.057230
0.052547 0.713791 0.057230
0.068499 0.713791 0.057230
0.117609 0.713791 0.057230
0.180426 0.713791 0.057230
0.248289 0.713791 0.057230
0.317320 0.713791 0.057230
0.389385 0.713791 0.057230
0.463351 0.713791 0.057230
0.539151 0.713791 0.057230
0.616834 0.713791 0.057230
0.697575 0.714845 0.057230
0.773741 0.710762 0.057230
0.849255 0.705822 0.057230
0.922109 0.698688 0.057230
0.981855 0.685409 0.057230
1.047134 0.681397 0.057230
0.052547 0.788332 0.057230
0.068402 0.788332 0.057230
0.117609 0.788332 0.057230
0.179323 0.788332 0.057230
0.247087 0.788332 0.057230
0.315889 0.788332 0.057230
0.388188 0.788332 0.057230
0.461924 0.788332 0.057230
0.537483 0.788332 0.057230
0.614968 0.788332 0.057230
0.693800 0.788332 0.057230
0.774929 0.788332 0.057230
0.849255 0.782720 0.057230
0.922109 0.774250 0.057230
0.981855 0.759146 0.057230
1.047134 0.754901 0.057230
0.052547 0.859070 0.057230
0.068170 0.859070 0.057230
0.116647 0.859070 0.057230
0.178100 0.859070 0.057230
0.245260 0.859070 0.057230
0.314492 0.859070 0.057230
0.385305 0.859070 0.057230
0.458480 0.859070 0.057230
0.533472 0.859070 0.057230
0.610295 0.859070 0.057230
0.688754 0.859070 0.057230
0.769155 0.859070 0.057230
0.850237 0.859955 0.057230
0.922109 0.848947 0.057230
0.981855 0.833332 0.057230
1.047134 0.828440 0.057230
0.052547 0.925056 0.057230
0.067809 0.925056 0.057230
0.115689 0.925056 0.057230
0.176733 0.925056 0.057230
0.241620 0.925056 0.057230
0.309946 0.925056 0.057230
0.380601 0.925056 0.057230
0.452884 0.925056 0.057230
0.526976 0.925056 0.057230
0.602761 0.925056 0.057230
0.680114 0.925056 0.057230
0.759574 0.925056 0.057230
0.838969 0.925300 0.057230
0.922109 0.924167 0.057230
0.981855 0.907841 0.057230
1.047134 0.902566 0.057230
0.052547 0.982225 0.057230
0.067226 0.982225 0.057230
0.112798 0.982225 0.057230
0.172172 0.982225 0.057230
0.237198 0.982225 0.057230
0.304081 0.982225 0.057230
0.373178 0.982225 0.057230
0.443946 0.982225 0.057230
0.516484 0.982225 0.057230
0.590705 0.982225 0.057230
0.666467 0.982225 0.057230
0.743361 0.982225 0.057230
0.821563 0.982225 0.057230
0.903594 0.982843 0.057230
0.981855 0.982225 0.057230
1.047134 0.976610 0.057230
0.052547 1.047135 0.057230
0.067048 1.047135 0.057230
0.112798 1.047135 0.057230
0.171982 1.047135 0.057230
0.234929 1.047135 0.057230
0.301387 1.047135 0.057230
0.370823 1.047135 0.057230
0.441198 1.047135 0.057230
0.513262 1.047135 0.057230
0.587048 1.047135 0.057230
0.662244 1.047135 0.057230
0.739647 1.047135 0.057230
0.817579 1.047135 0.057230
0.897428 1.047135 0.057230
0.975772 1.047135 0.057230
1.047134 1.047135 0.057230
0.052547 0.057230 0.069778
0.064075 0.057230 0.069778
0.105113 0.057230 0.070662
0.162817 0.057230 0.071553
0.228330 0.057230 0.071574
0.300177 0.057230 0.073009
0.375119 0.057230 0.073367
0.454031 0.057230 0.073912
0.534985 0.057230 0.074324
0.615859 0.057230 0.074533
0.697434 0.057230 0.074324
0.773780 0.057230 0.074533
0.849255 0.057230 0.074096
0.922109 0.057230 0.073905
0.981855 0.057230 0.073191
1.047134 0.057230 0.073010
0.052547 0.069778 0.069778
0.064075 0.069778 0.069778
0.105113 0.069778 0.069778
0.162817 0.069778 0.069778
0.228330 0.069778 0.069778
0.300177 0.069778 0.069778
0.375119 0.069778 0.069778
0.454031 0.069778 0.069778
0.534985 0.069778 0.069778
0.615859 0.069778 0.069778
0.697434 0.069778 0.069778
0.773780 0.069778 0.069778
0.849255 0.069778 0.069778
0.922109 0.069778 0.069778
0.981855 0.069778 0.069778
1.047134 0.069778 0.069778
0.052547 0.113424 0.070530
0.064075 0.113424 0.069778
0.105113 0.113424 0.069646
0.162817 0.115350 0.069778
0.228330 0.117129 0.069778
0.300177 0.119558 0.069778
0.375119 0.120983 0.069778
0.454031 0.122453 0.069778
0.534985 0.123548 0.069778
0.615859 0.124093 0.069778
0.697434 0.124509 0.069778
0.773780 0.124093 0.069778
0.849255 0.123307 0.069778
0.922109 0.121794 0.069778
0.981855 0.120420 0.069778
1.047134 0.119866 0.069778
0.052547 0.174896 0.071370
0.064075 0.174896 0.069778
0.107037 0.174896 0.069592
0.162817 0.174896 0.069778
0.228330 0.178322 0.069778
0.300177 0.182075 0.069778
0.375119 0.185159 0.069778
0.454031 0.187945 0.069778
0.534985 0.190053 0.069778
0.615859 0.191084 0.069778
0.697434 0.191041 0.069778
0.773780 0.190097 0.069778
0.849255 0.188940 0.069778
0.922109 0.186969 0.069778
0.981855 0.184057 0.069778
1.047134 0.183054 0.069778
0.052547 0.244490 0.072123
0.064075 0.244490 0.069778
0.108953 0.244490 0.069456
0.166690 0.244490 0.069778
0.228330 0.243889 0.069778
0.300177 0.248856 0.069778
0.375119 0.253748 0.069778
0.454031 0.257735 0.069778
0.534985 0.260770 0.069778
0.615859 0.262229 0.069778
0.697434 0.262746 0.069778
0.773780 0.262229 0.069778
0.849255 0.260059 0.069778
0.922109 0.256609 0.069778
0.981855 0.252171 0.069778
1.047134 0.250687 0.069778
0.052547 0.318633 0.072777
0.064075 0.318633 0.069778
0.110875 0.318633 0.069216
0.170587 0.318633 0.069778
0.233255 0.318413 0.069778
0.300177 0.318622 0.069778
0.375119 0.324379 0.069778
0.454031 0.329562 0.069778
0.534985 0.333450 0.069778
0.615859 0.335410 0.069778
0.697434 0.336436 0.069778
0.773780 0.334407 0.069778
0.849255 0.332266 0.069778
0.922109 0.328307 0.069778
0.981855 0.322316 0.069778
1.047134 0.320361 0.069778
0.052547 0.396117 0.073367
0.064075 0.396117 0.069778
0.111834 0.396117 0.068912
0.173535 0.396117 0.069778
0.238165 0.396117 0.069778
0.306115 0.396502 0.069778
0.375119 0.396117 0.069778
0.454031 0.402536 0.069778
0.534985 0.407319 0.069778
0.615859 0.409637 0.069778
0.697434 0.410307 0.069778
0.773780 0.409637 0.069778
0.849255 0.405601 0.069778
0.922109 0.401354 0.069778
0.981855 0.393596 0.069778
1.047134 0.391336 0.069778
0.052547 0.476294 0.073912
0.064075 0.476294 0.069778
0.112798 0.476294 0.069447
0.175482 0.476294 0.069778
0.242375 0.476294 0.069778
0.311094 0.476294 0.069778
0.381416 0.476294 0.069778
0.454031 0.476294 0.069778
0.534985 0.481925 0.069778
0.615859 0.484733 0.069778
0.697434 0.485951 0.069778
0.773780 0.483712 0.069778
0.849255 0.479840 0.069778
0.922109 0.475080 0.069778
0.981855 0.465737 0.069778
1.047134 0.462999 0.069778
0.052547 0.557168 0.074324
0.064075 0.557168 0.069778
0.113762 0.557168 0.068969
0.177433 0.557168 0.069778
0.243994 0.557168 0.069778
0.314582 0.557168 0.069778
0.386059 0.557168 0.069778
0.459602 0.557168 0.069778
0.534985 0.557168 0.069778
0.615859 0.560352 0.069778
0.697434 0.561210 0.069778
0.773780 0.558337 0.069778
0.849255 0.555710 0.069778
0.922109 0.549481 0.069778
0.981855 0.538492 0.069778
1.047134 0.535337 0.069778
0.052547 0.636490 0.074533
0.064075 0.636490 0.069778
0.114720 0.636490 0.069175
0.178403 0.636490 0.069778
0.246270 0.636490 0.069778
0.316355 0.636490 0.069778
0.388367 0.636490 0.069778
0.462387 0.636490 0.069778
0.538253 0.636490 0.069778
0.615859 0.636490 0.069778
0.697656 0.637472 0.069778
0.773780 0.634440 0.069778
0.849255 0.631022 0.069778
0.922109 0.623288 0.069778
0.981855 0.611699 0.069778
1.047134 0.608078 0.069778
0.052547 0.713791 0.074588
0.064075 0.713791 0.069778
0.114720 0.713791 0.069230
0.178403 0.713791 0.069778
0.245805 0.713791 0.069778
0.315972 0.713791 0.069778
0.388867 0.713791 0.069778
0.463008 0.713791 0.069778
0.538966 0.713791 0.069778
0.616807 0.713791 0.069778
0.698350 0.714845 0.069778
0.773710 0.710762 0.069778
0.849255 0.705564 0.069778
0.922109 0.698457 0.069778
0.981855 0.685153 0.069778
1.047134 0.681158 0.069778
0.052547 0.788332 0.074484
0.064075 0.788332 0.069778
0.114720 0.788332 0.069127
0.178403 0.788332 0.069778
0.245556 0.788332 0.069778
0.315517 0.788332 0.069778
0.387620 0.788332 0.069778
0.461547 0.788332 0.069778
0.537248 0.788332 0.069778
0.614717 0.788332 0.069778
0.694582 0.788332 0.069778
0.774754 0.788332 0.069778
0.849255 0.782702 0.069778
0.922109 0.774144 0.069778
0.981855 0.759236 0.069778
1.047134 0.754717 0.069778
0.052547 0.859070 0.074232
0.064075 0.859070 0.069778
0.113762 0.859070 0.069762
0.176456 0.859070 0.069778
0.242713 0.859070 0.069778
0.313078 0.859070 0.069778
0.384718 0.859070 0.069778
0.458067 0.859070 0.069778
0.533196 0.859070 0.069778
0.610096 0.859070 0.069778
0.688446 0.859070 0.069778
0.769041 0.859070 0.069778
0.850237 0.859868 0.069778
0.922109 0.848922 0.069778
0.981855 0.833233 0.069778
1.047134 0.828415 0.069778
0.052547 0.925056 0.073831
0.064075 0.925056 0.069778
0.112798 0.925056 0.069371
0.174497 0.925056 0.069778
0.241066 0.925056 0.069778
0.309533 0.925056 0.069778
0.380073 0.925056 0.069778
0.452461 0.925056 0.069778
0.526606 0.925056 0.069778
0.602527 0.925056 0.069778
0.679780 0.925056 0.069778
0.758345 0.925056 0.069778
0.838969 0.925216 0.069778
0.922109 0.925110 0.069778
0.981855 0.907759 0.069778
1.047134 0.902514 0.069778
0.052547 0.982225 0.073191
0.064075 0.982225 0.069778
0.111834 0.982225 0.069630
0.172549 0.982225 0.069778
0.235724 0.982225 0.069778
0.303714 0.982225 0.069778
0.372654 0.982225 0.069778
0.443562 0.982225 0.069778
0.516139 0.982225 0.069778
0.590516 0.982225 0.069778
0.667185 0.982225 0.069778
0.744152 0.982225 0.069778
0.821563 0.982225 0.069778
0.903594 0.981714 0.069778
0.981855 0.982225 0.069778
1.047134 0.976631 0.069778
0.052547 1.047135 0.073010
0.064075 1.047135 0.069778
0.111834 1.047135 0.069446
0.171571 1.047135 0.069778
0.235477 1.047135 0.069778
0.302049 1.047135 0.069778
0.370405 1.047135 0.069778
0.440861 1.047135 0.069778
0.512977 1.047135 0.069778
0.586802 1.047135 0.069778
0.662950 1.047135 0.069778
0.739409 1.047135 0.069778
0.816599 1.047135 0.069778
0.897428 1.047135 0.069778
0.975842 1.047135 0.069778
1.047134 1.047135 0.069778
0.052547 0.057230 0.113424
0.064775 0.057230 0.113424
0.105113 0.057230 0.113424
0.162614 0.057230 0.116315
0.228330 0.057230 0.119242
0.300177 0.057230 0.121026
0.375119 0.057230 0.123087
0.454031 0.057230 0.124887
0.534985 0.057230 0.126238
0.615859 0.057230 0.126941
0.697434 0.057230 0.127196
0.773780 0.057230 0.126941
0.849255 0.057230 0.126382
0.922109 0.057230 0.124799
0.981855 0.057230 0.122523
1.047134 0.057230 0.121903
0.052547 0.070530 0.113424
0.064075 0.069778 0.113424
0.105113 0.069646 0.113424
0.162817 0.069778 0.115350
0.228330 0.069778 0.117129
0.300177 0.069778 0.119558
0.375119 0.069778 0.120983
0.454031 0.069778 0.122453
0.534985 0.069778 0.123548
0.615859 0.069778 0.124093
0.697434 0.069778 0.124509
0.773780 0.069778 0.124093
0.849255 0.069778 0.123307
0.922109 0.069778 0.121794
0.981855 0.069778 0.120420
1.047134 0.069778 0.119866
0.052547 0.113424 0.113424
0.064075 0.113424 0.113424
0.105113 0.113424 0.113424
0.162817 0.113424 0.113424
0.228330 0.113424 0.113424
0.300177 0.113424 0.113424
0.375119 0.113424 0.113424
0.454031 0.113424 0.113424
0.534985 0.113424 0.113424
0.615859 0.113424 0.113424
0.697434 0.113424 0.113424
0.773780 0.113424 0.113424
0.849255 0.113424 0.113424
0.922109 0.113424 0.113424
0.981855 0.113424 0.113424
1.047134 0.113424 0.113424
0.052547 0.174896 0.116344
0.064075 0.174896 0.115647
0.105113 0.174896 0.113461
0.162817 0.174896 0.113725
0.228330 0.177202 0.113424
0.300177 0.178997 0.113424
0.375119 0.181123 0.113424
0.454031 0.182904 0.113424
0.534985 0.184248 0.113424
0.615859 0.184888 0.113424
0.697434 0.185239 0.113424
0.773780 0.183922 0.113424
0.849255 0.183706 0.113424
0.922109 0.182007 0.113424
0.981855 0.179811 0.113424
1.047134 0.179068 0.113424
0.052547 0.244490 0.118915
0.064075 0.244490 0.117661
0.105113 0.244490 0.113139
0.165722 0.244490 0.113806
0.228330 0.244699 0.113424
0.300177 0.247890 0.113424
0.375119 0.251601 0.113424
0.454031 0.254792 0.113424
0.534985 0.257187 0.113424
0.615859 0.258322 0.113424
0.697434 0.259164 0.113424
0.773780 0.258322 0.113424
0.849255 0.256183 0.113424
0.922109 0.252943 0.113424
0.981855 0.249275 0.113424
1.047134 0.248011 0.113424
0.052547 0.318633 0.121135
0.064075 0.318633 0.119402
0.105113 0.318633 0.113433
0.167662 0.318633 0.113626
0.232261 0.318497 0.113424
0.300177 0.319019 0.113424
0.375119 0.323465 0.113424
0.454031 0.327978 0.113424
0.534985 0.331231 0.113424
0.615859 0.332711 0.113424
0.697434 0.333209 0.113424
0.773780 0.331753 0.113424
0.849255 0.329173 0.113424
0.922109 0.326398 0.113424
0.981855 0.320211 0.113424
1.047134 0.318437 0.113424
0.052547 0.396117 0.123087
0.064075 0.396117 0.120983
0.105113 0.396117 0.113461
0.169627 0.396117 0.113279
0.235205 0.396117 0.113424
0.305147 0.396775 0.113424
0.375119 0.396117 0.113424
0.454031 0.401804 0.113424
0.534985 0.405993 0.113424
0.615859 0.407993 0.113424
0.697434 0.408018 0.113424
0.773780 0.405968 0.113424
0.849255 0.403074 0.113424
0.922109 0.399857 0.113424
0.981855 0.392064 0.113424
1.047134 0.389846 0.113424
0.052547 0.476294 0.124887
0.064075 0.476294 0.122453
0.105113 0.476294 0.113325
0.171571 0.476294 0.113783
0.238733 0.476294 0.113424
0.309096 0.476294 0.113424
0.380709 0.476294 0.113424
0.454031 0.476294 0.113424
0.534985 0.481313 0.113424
0.615859 0.483693 0.113424
0.697434 0.485333 0.113424
0.773780 0.481673 0.113424
0.849255 0.478666 0.113424
0.922109 0.473939 0.113424
0.981855 0.464551 0.113424
1.047134 0.461869 0.113424
0.052547 0.557168 0.126238
0.064075 0.557168 0.123548
0.105113 0.557168 0.113710
0.172549 0.557168 0.113918
0.239786 0.557168 0.113424
0.312072 0.557168 0.113424
0.384762 0.557168 0.113424
0.459050 0.557168 0.113424
0.534985 0.557168 0.113424
0.615859 0.559927 0.113424
0.697434 0.560201 0.113424
0.773780 0.558922 0.113424
0.849255 0.554783 0.113424
0.922109 0.549612 0.113424
0.981855 0.537603 0.113424
1.047134 0.534415 0.113424
0.052547 0.636490 0.126941
0.064075 0.636490 0.124093
0.105113 0.636490 0.113449
0.173535 0.636490 0.113489
0.240714 0.636490 0.113424
0.313414 0.636490 0.113424
0.386732 0.636490 0.113424
0.461420 0.636490 0.113424
0.537788 0.636490 0.113424
0.615859 0.636490 0.113424
0.698171 0.637472 0.113424
0.773780 0.634440 0.113424
0.849255 0.629295 0.113424
0.922109 0.622672 0.113424
0.981855 0.611008 0.113424
1.047134 0.607462 0.113424
0.052547 0.713791 0.127075
0.064075 0.713791 0.124209
0.105113 0.713791 0.113584
0.173535 0.713791 0.113619
0.241988 0.713791 0.113424
0.314717 0.713791 0.113424
0.387013 0.713791 0.113424
0.461733 0.713791 0.113424
0.538238 0.713791 0.113424
0.616416 0.713791 0.113424
0.697642 0.714845 0.113424
0.774352 0.710762 0.113424
0.849255 0.706146 0.113424
0.922109 0.698045 0.113424
0.981855 0.684763 0.113424
1.047134 0.680747 0.113424
0.052547 0.788332 0.126741
0.064075 0.788332 0.123922
0.105113 0.788332 0.113261
0.172549 0.788332 0.113326
0.241677 0.788332 0.113424
0.312186 0.788332 0.113424
0.385698 0.788332 0.113424
0.460169 0.788332 0.113424
0.536237 0.788332 0.113424
0.614165 0.788332 0.113424
0.693539 0.788332 0.113424
0.775171 0.788332 0.113424
0.849255 0.782366 0.113424
0.922109 0.773849 0.113424
0.981855 0.758804 0.113424
1.047134 0.754416 0.113424
0.052547 0.859070 0.125956
0.064075 0.859070 0.123261
0.105113 0.859070 0.113426
0.171571 0.859070 0.113625
0.238836 0.859070 0.113424
0.310656 0.859070 0.113424
0.382792 0.859070 0.113424
0.456625 0.859070 0.113424
0.532156 0.859070 0.113424
0.609399 0.859070 0.113424
0.688424 0.859070 0.113424
0.769280 0.859070 0.113424
0.850237 0.859717 0.113424
0.922109 0.849615 0.113424
0.981855 0.833030 0.113424
1.047134 0.828059 0.113424
0.052547 0.925056 0.124637
0.064075 0.925056 0.122148
0.105113 0.925056 0.113080
0.170587 0.925056 0.113477
0.237349 0.925056 0.113424
0.306247 0.925056 0.113424
0.378304 0.925056 0.113424
0.451151 0.925056 0.113424
0.525604 0.925056 0.113424
0.601772 0.925056 0.113424
0.679795 0.925056 0.113424
0.759590 0.925056 0.113424
0.838969 0.925066 0.113424
0.922109 0.924966 0.113424
0.981855 0.907603 0.113424
1.047134 0.902372 0.113424
0.052547 0.982225 0.122523
0.064075 0.982225 0.120420
0.105113 0.982225 0.113863
0.167662 0.982225 0.113677
0.233258 0.982225 0.113424
0.301580 0.982225 0.113424
0.371144 0.982225 0.113424
0.442407 0.982225 0.113424
0.515236 0.982225 0.113424
0.589749 0.982225 0.113424
0.665245 0.982225 0.113424
0.743458 0.982225 0.113424
0.821563 0.982225 0.113424
0.903594 0.981551 0.113424
0.981855 0.982225 0.113424
1.047134 0.976462 0.113424
0.052547 1.047135 0.121903
0.064075 1.047135 0.119866
0.105113 1.047135 0.113236
0.167662 1.047135 0.113129
0.233091 1.047135 0.113424
0.299957 1.047135 0.113424
0.368982 1.047135 0.113424
0.439759 1.047135 0.113424
0.512077 1.047135 0.113424
0.586090 1.047135 0.113424
0.662089 1.047135 0.113424
0.738638 1.047135 0.113424
0.815420 1.047135 0.113424
0.897428 1.047135 0.113424
0.975670 1.047135 0.113424
1.047134 1.047135 0.113424
0.052547 0.057230 0.174896
0.065550 0.057230 0.174896
0.107997 0.057230 0.174896
0.162515 0.057230 0.174896
0.228330 0.057230 0.179476
0.300177 0.057230 0.183501
0.375119 0.057230 0.186312
0.454031 0.057230 0.189375
0.534985 0.057230 0.191650
0.615859 0.057230 0.192778
0.697434 0.057230 0.193593
0.773780 0.057230 0.191814
0.849255 0.057230 0.191262
0.922109 0.057230 0.189194
0.981855 0.057230 0.185414
1.047134 0.057230 0.184321
0.052547 0.071370 0.174896
0.064075 0.069778 0.174896
0.107037 0.069592 0.174896
0.162817 0.069778 0.174896
0.228330 0.069778 0.178322
0.300177 0.069778 0.182075
0.375119 0.069778 0.185159
0.454031 0.069778 0.187945
0.534985 0.069778 0.190053
0.615859 0.069778 0.191084
0.697434 0.069778 0.191041
0.773780 0.069778 0.190097
0.849255 0.069778 0.188940
0.922109 0.069778 0.186969
0.981855 0.069778 0.184057
1.047134 0.069778 0.183054
0.052547 0.116344 0.174896
0.064075 0.115647 0.174896
0.105113 0.113461 0.174896
0.162817 0.113725 0.174896
0.228330 0.113424 0.177202
0.300177 0.113424 0.178997
0.375119 0.113424 0.181123
0.454031 0.113424 0.182904
0.534985 0.113424 0.184248
0.615859 0.113424 0.184888
0.697434 0.113424 0.185239
0.773780 0.113424 0.183922
0.849255 0.113424 0.183706
0.922109 0.113424 0.182007
0.981855 0.113424 0.179811
1.047134 0.113424 0.179068
0.052547 0.174896 0.174896
0.064075 0.174896 0.174896
0.105113 0.174896 0.174896
0.162817 0.174896 0.174896
0.228330 0.174896 0.174896
0.300177 0.174896 0.174896
0.375119 0.174896 0.174896
0.454031 0.174896 0.174896
0.534985 0.174896 0.174896
0.615860 0.174896 0.174896
0.697434 0.174896 0.174896
0.773780 0.174896 0.174896
0.849255 0.174896 0.174896
0.922109 0.174896 0.174896
0.981855 0.174896 0.174896
1.047134 0.174896 0.174896
0.052547 0.244490 0.179252
0.064075 0.244490 0.178751
0.105113 0.244490 0.177302
0.162817 0.244490 0.174858
0.228330 0.244427 0.174896
0.300177 0.246267 0.174896
0.375119 0.248376 0.174896
0.454031 0.250211 0.174896
0.534985 0.251590 0.174896
0.615860 0.252172 0.174896
0.697434 0.252581 0.174896
0.773780 0.251183 0.174896
0.849255 0.249973 0.174896
0.922109 0.249137 0.174896
0.981855 0.246026 0.174896
1.047134 0.245194 0.174896
0.052547 0.318633 0.183025
0.064075 0.318633 0.182166
0.105113 0.318633 0.179116
0.162817 0.318633 0.174334
0.230303 0.319078 0.174896
0.300177 0.318417 0.174896
0.375119 0.322067 0.174896
0.454031 0.325379 0.174896
0.534985 0.327815 0.174896
0.615860 0.328867 0.174896
0.697434 0.329792 0.174896
0.773780 0.327867 0.174896
0.849255 0.325848 0.174896
0.922109 0.322385 0.174896
0.981855 0.317903 0.174896
1.047134 0.316438 0.174896
0.052547 0.396117 0.186312
0.064075 0.396117 0.185159
0.105113 0.396117 0.181447
0.162817 0.396117 0.174425
0.232261 0.396117 0.174896
0.303141 0.396750 0.174896
0.375119 0.396117 0.174896
0.454031 0.400739 0.174896
0.534985 0.404041 0.174896
0.615860 0.405424 0.174896
0.697434 0.405040 0.174896
0.773780 0.403411 0.174896
0.849255 0.401356 0.174896
0.922109 0.397366 0.174896
0.981855 0.390357 0.174896
1.047134 0.388374 0.174896
0.052547 0.476294 0.189375
0.064075 0.476294 0.187945
0.105113 0.476294 0.183501
0.162817 0.476294 0.174268
0.234711 0.476294 0.174896
0.307119 0.476294 0.174896
0.379586 0.476294 0.174896
0.454031 0.476294 0.174896
