backend/color_grading/05_Film LUTs_Foliage.cube
LUT_3D_SIZE 6
0.052547 0.057230 0.057230
0.162817 0.057230 0.057230
0.375119 0.057230 0.057230
0.615859 0.057230 0.057230
0.849255 0.057230 0.057230
1.047134 0.057230 0.057230
0.052547 0.174896 0.057230
0.162515 0.174896 0.057230
0.375119 0.186312 0.057230
0.615859 0.192778 0.057230
0.849255 0.191262 0.057230
1.047134 0.184321 0.057230
0.052547 0.396117 0.057230
0.173313 0.396117 0.057230
0.375119 0.396117 0.057230
0.615859 0.410108 0.057230
0.849255 0.406096 0.057230
1.047134 0.391747 0.057230
0.052547 0.636490 0.057230
0.180373 0.636490 0.057230
0.388787 0.636490 0.057230
0.615859 0.636490 0.057230
0.849255 0.630225 0.057230
1.047134 0.608295 0.057230
0.052547 0.859070 0.057230
0.178100 0.859070 0.057230
0.385305 0.859070 0.057230
0.610295 0.859070 0.057230
0.850237 0.859955 0.057230
1.047134 0.828440 0.057230
0.052547 1.047135 0.057230
0.171982 1.047135 0.057230
0.370823 1.047135 0.057230
0.587048 1.047135 0.057230
0.817579 1.047135 0.057230
1.047134 1.047135 0.057230
0.052547 0.057230 0.174896
0.162515 0.057230 0.174896
0.375119 0.057230 0.186312
0.615859 0.057230 0.192778
0.849255 0.057230 0.191262
1.047134 0.057230 0.184321
0.052547 0.174896 0.174896
0.162817 0.174896 0.174896
0.375119 0.174896 0.174896
0.615860 0.174896 0.174896
0.849255 0.174896 0.174896
1.047134 0.174896 0.174896
0.052547 0.396117 0.186312
0.162817 0.396117 0.174425
0.375119 0.396117 0.174896
0.615860 0.405424 0.174896
0.849255 0.401356 0.174896
1.047134 0.388374 0.174896
0.052547 0.636490 0.192778
0.162817 0.636490 0.174501
0.384248 0.636490 0.174896
0.615860 0.636490 0.174896
0.849255 0.628546 0.174896
1.047134 0.606731 0.174896
0.052547 0.859070 0.191129
0.162817 0.859070 0.174829
0.380067 0.859070 0.174896
0.608312 0.859070 0.174896
0.850237 0.859514 0.174896
1.047134 0.827759 0.174896
0.052547 1.047135 0.184321
0.162817 1.047135 0.174278
0.367505 1.047135 0.174896
0.585387 1.047135 0.174896
0.817356 1.047135 0.174896
1.047134 1.047135 0.174896
0.052547 0.057230 0.396117
0.173313 0.057230 0.396117
0.375119 0.057230 0.396117
0.615859 0.057230 0.410108
0.849255 0.057230 0.406096
1.047134 0.057230 0.391747
0.052547 0.186312 0.396117
0.162817 0.174425 0.396117
0.375119 0.174896 0.396117
0.615860 0.174896 0.405424
0.849255 0.174896 0.401356
1.047134 0.174896 0.388374
0.052547 0.396117 0.396117
0.162817 0.396117 0.396117
0.375119 0.396117 0.396117
0.615859 0.396117 0.396117
0.849255 0.396117 0.396117
1.047134 0.396117 0.396117
0.052547 0.636490 0.410108
0.162817 0.636490 0.405634
0.375119 0.636490 0.396117
0.615859 0.636490 0.396117
0.849255 0.628016 0.396117
1.047134 0.610349 0.396117
0.052547 0.859070 0.406550
0.162817 0.859070 0.400991
0.375119 0.859070 0.396117
0.606580 0.859070 0.396117
0.850237 0.859302 0.396117
1.047134 0.829264 0.396117
0.052547 1.047135 0.391747
0.162817 1.047135 0.388339
0.375119 1.047135 0.396117
0.589107 1.047135 0.396117
0.817784 1.047135 0.396117
1.047134 1.047135 0.396117
0.052547 0.057230 0.636490
0.180373 0.057230 0.636490
0.388787 0.057230 0.636490
0.615859 0.057230 0.636490
0.849255 0.057230 0.630225
1.047134 0.057230 0.608295
0.052547 0.192778 0.636490
0.162817 0.174501 0.636490
0.384248 0.174896 0.636490
0.615860 0.174896 0.636490
0.849255 0.174896 0.628546
1.047134 0.174896 0.606731
0.052547 0.410108 0.636490
0.162817 0.405634 0.636490
0.375119 0.396117 0.636490
0.615859 0.396117 0.636490
0.849255 0.396117 0.628016
1.047134 0.396117 0.610349
0.052547 0.636490 0.636490
0.162817 0.636490 0.636490
0.375119 0.636490 0.636490
0.615859 0.636490 0.636490
0.849255 0.636490 0.636490
1.047134 0.636490 0.636490
0.052547 0.859070 0.631063
0.162817 0.859070 0.628774
0.375119 0.859070 0.627383
0.615859 0.859070 0.636490
0.850237 0.859759 0.636490
1.047134 0.839880 0.636490
0.052547 1.047135 0.608295
0.162817 1.047135 0.606050
0.375119 1.047135 0.610349
0.615859 1.047135 0.636490
0.830474 1.047135 0.636490
1.047134 1.047135 0.636490
0.052547 0.057230 0.859070
0.178100 0.057230 0.859070
0.385305 0.057230 0.859070
0.610295 0.057230 0.859070
0.850237 0.057230 0.859955
1.047134 0.057230 0.828440
0.052547 0.191129 0.859070
0.162817 0.174829 0.859070
0.380067 0.174896 0.859070
0.608312 0.174896 0.859070
0.850237 0.174896 0.859514
1.047134 0.174896 0.827759
0.052547 0.406550 0.859070
0.162817 0.400991 0.859070
0.375119 0.396117 0.859070
0.606580 0.396117 0.859070
0.850237 0.396117 0.859302
1.047134 0.396117 0.829264
0.052547 0.631063 0.859070
0.162817 0.628774 0.859070
0.375119 0.627383 0.859070
0.615859 0.636490 0.859070
0.850237 0.636490 0.859759
1.047134 0.636490 0.839880
0.052547 0.859070 0.859070
0.162817 0.859070 0.859070
0.375119 0.859070 0.859070
0.615859 0.859070 0.859070
0.849255 0.858071 0.858071
1.047134 0.859070 0.859070
0.052547 1.047135 0.828440
0.162817 1.047135 0.827372
0.375119 1.047135 0.829264
0.615859 1.047135 0.839880
0.850132 1.047135 0.858071
1.047134 1.047135 0.859070
0.052547 0.057230 1.047135
0.171982 0.057230 1.047135
0.370823 0.057230 1.047135
0.587048 0.057230 1.047135
0.817579 0.057230 1.047135
1.047134 0.057230 1.047135
0.052547 0.184321 1.047135
0.162817 0.174278 1.047135
0.367505 0.174896 1.047135
0.585387 0.174896 1.047135
0.817356 0.174896 1.047135
1.047134 0.174896 1.047135
0.052547 0.391747 1.047135
0.162817 0.388339 1.047135
0.375119 0.396117 1.047135
0.589107 0.396117 1.047135
0.817784 0.396117 1.047135
1.047134 0.396117 1.047135
0.052547 0.608295 1.047135
0.162817 0.606050 1.047135
0.375119 0.610349 1.047135
0.615859 0.636490 1.047135
0.830474 0.636490 1.047135
1.047134 0.636490 1.047135
0.052547 0.828440 1.047135
0.162817 0.827372 1.047135
0.375119 0.829264 1.047135
0.615859 0.839880 1.047135
0.850132 0.858071 1.047135
1.047134 0.859070 1.047135
0.052547 1.047135 1.047135
0.162817 1.047135 1.047135
0.375119 1.047135 1.047135
0.615859 1.047135 1.047135
0.849255 1.047135 1.047135
1.047134 1.047135 1.047135
